X: 1
T: The Ale Is Dear
R: reel
M: 4/4
L: 1/8
K: Bmin
|:f2ef B2fe | faea cA Ae |f2 ef B2 fe | fa ec B2 Bc :|
|:BB Bc d2 cB | AA AB AB cA |BB Bc d2 cB | ff ec B2 B2 :|


Tune 866	Setting 20843

